X:1539
T:"The Watchmaker"     (reel)     1539
C:after Sg't. J. O'Neill
B:O'Neill's Music Of Ireland (The 1850) Lyon & Healy, Chicago, 1903 edition
Z:FROM O'NEILL'S TO NOTEWORTHY, FROM NOTEWORTHY TO ABC, MIDI AND .TXT BY VINCE
BRENNAN July 2003 (HTTP://WWW.SOSYOURMOM.COM)
I:abc2nwc
M:C|
L:1/8
K:C
ed|:(cA)Ac (BG)GB|(cA)AB (cd)ed|(cA)Ac (BG)GB| (3(cBA) TRBG (EA)AB:|
c2(ec) gcec|G2(BG) dGBG|c2(ec) gcec|(ea)ag (ea)ab|
geeg ^f/2d3/2d=f|e3/2c/2ce (d/2B3/2)GB|(AB)cd (ef)ed| (3(cBA) BG (EA)AB
|:(cA)Ac (BG)GB|(cA)AB (cd)ed|(cA)Ac (BG)GB|[1 (3(cBA) TRBG (EA)AB:|[2 (3(cBA) TRBG (E A) A |]


